symbols/web/event_seat/materialsymbolsrounded/event_seat_wght500_48px.svg

<svg xmlns="http://www.w3.org/2000/svg" height="48" width="48"><path d="M23.9 34.65h13.35q.7 0 1.2-.5t.5-1.2V23.5q0-.75-.5-1.225-.5-.475-1.2-.475H23.9q-.75 0-1.225.475-.475.475-.475 1.225v9.45q0 .7.475 1.2t1.225.5ZM7.1 40.3q-1.35 0-2.375-1.025T3.7 36.9V11.1q0-1.4 1.025-2.4t2.375-1h33.8q1.4 0 2.4 1t1 2.4v25.8q0 1.35-1 2.375T40.9 40.3Zm0-3.4V11.1v25.8Zm0 0h33.8V11.1H7.1v25.8Z"/></svg>

<svg xmlns="http://www.w3.org/2000/svg" height="48" width="48"><path d="M23.9 34.65H37.25Q37.95 34.65 38.45 34.15Q38.95 33.65 38.95 32.95V23.5Q38.95 22.75 38.45 22.275Q37.95 21.8 37.25 21.8H23.9Q23.15 21.8 22.675 22.275Q22.2 22.75 22.2 23.5V32.95Q22.2 33.65 22.675 34.15Q23.15 34.65 23.9 34.65ZM7.1 40.3Q5.75 40.3 4.725 39.275Q3.7 38.25 3.7 36.9V11.1Q3.7 9.7 4.725 8.7Q5.75 7.7 7.1 7.7H40.9Q42.3 7.7 43.3 8.7Q44.3 9.7 44.3 11.1V36.9Q44.3 38.25 43.3 39.275Q42.3 40.3 40.9 40.3ZM7.1 36.9Q7.1 36.9 7.1 36.9Q7.1 36.9 7.1 36.9V11.1Q7.1 11.1 7.1 11.1Q7.1 11.1 7.1 11.1Q7.1 11.1 7.1 11.1Q7.1 11.1 7.1 11.1V36.9Q7.1 36.9 7.1 36.9Q7.1 36.9 7.1 36.9ZM7.1 36.9H40.9Q40.9 36.9 40.9 36.9Q40.9 36.9 40.9 36.9V11.1Q40.9 11.1 40.9 11.1Q40.9 11.1 40.9 11.1H7.1Q7.1 11.1 7.1 11.1Q7.1 11.1 7.1 11.1V36.9Q7.1 36.9 7.1 36.9Q7.1 36.9 7.1 36.9Z"/></svg>
